resources/svg/regular/building-house.svg

<svg xmlns="http://www.w3.org/2000/svg" fill="currentColor" stroke="none" viewBox="0 0 24 24"><path d="M19 2H9c-1.103 0-2 .897-2 2v5.586l-4.707 4.707A1 1 0 0 0 3 16v5a1 1 0 0 0 1 1h16a1 1 0 0 0 1-1V4c0-1.103-.897-2-2-2zm-8 18H5v-5.586l3-3 3 3V20zm8 0h-6v-4a.999.999 0 0 0 .707-1.707L9 9.586V4h10v16z"/><path d="M11 6h2v2h-2zm4 0h2v2h-2zm0 4.031h2V12h-2zM15 14h2v2h-2zm-8 1h2v2H7z"/></svg>

<svg xmlns="http://www.w3.org/2000/svg" fill="currentColor" stroke="none" viewBox="0 0 24 24"><path d="M19,2H9C7.897,2,7,2.897,7,4v5.586l-4.707,4.707c-0.286,0.286-0.372,0.716-0.217,1.09S2.596,16,3,16v1v4 c0,0.553,0.448,1,1,1h8h8c0.553,0,1-0.447,1-1V4C21,2.897,20.103,2,19,2z M11,20H5v-3v-2v-0.586l3-3l3,3V15v3V20z M19,20h-6v-2v-2 c0.404,0,0.77-0.243,0.924-0.617c0.155-0.374,0.069-0.804-0.217-1.09L9,9.586V4h10V20z"/><path d="M11 6H13V8H11zM15 6H17V8H15zM15 10.031H17V12H15zM15 14H17V16H15zM7 15H9V17H7z"/></svg>
